dist/img/icons/Header/Settings.svg

<svg width="20" height="20" viewBox="0 0 20 20" fill="none" xmlns="http://www.w3.org/2000/svg">
<path d="M15.95 10.7833C15.9833 10.5333 16 10.275 16 10C16 9.73334 15.9833 9.46667 15.9416 9.21667L17.6333 7.9C17.7062 7.83992 17.756 7.75642 17.7742 7.66373C17.7925 7.57103 17.778 7.47489 17.7333 7.39167L16.1333 4.625C16.0862 4.54131 16.011 4.47698 15.921 4.44343C15.831 4.40987 15.732 4.40925 15.6416 4.44167L13.65 5.24167C13.2333 4.925 12.7916 4.65834 12.3 4.45834L12 2.34167C11.9852 2.24628 11.9367 2.15934 11.8633 2.09665C11.7899 2.03396 11.6965 1.99967 11.6 2H8.39997C8.19997 2 8.04164 2.14167 8.0083 2.34167L7.7083 4.45834C7.21664 4.65834 6.76664 4.93334 6.3583 5.24167L4.36664 4.44167C4.1833 4.375 3.97497 4.44167 3.87497 4.625L2.2833 7.39167C2.1833 7.56667 2.21664 7.78334 2.3833 7.9L4.07497 9.21667C4.0333 9.46667 3.99997 9.74167 3.99997 10C3.99997 10.2583 4.01664 10.5333 4.0583 10.7833L2.36664 12.1C2.29374 12.1601 2.24393 12.2436 2.2257 12.3363C2.20746 12.429 2.22193 12.5251 2.26664 12.6083L3.86664 15.375C3.96664 15.5583 4.17497 15.6167 4.3583 15.5583L6.34997 14.7583C6.76664 15.075 7.2083 15.3417 7.69997 15.5417L7.99997 17.6583C8.04164 17.8583 8.19997 18 8.39997 18H11.6C11.8 18 11.9666 17.8583 11.9916 17.6583L12.2916 15.5417C12.7833 15.3417 13.2333 15.075 13.6416 14.7583L15.6333 15.5583C15.8166 15.625 16.025 15.5583 16.125 15.375L17.725 12.6083C17.825 12.425 17.7833 12.2167 17.625 12.1L15.95 10.7833ZM9.99997 13C8.34997 13 6.99997 11.65 6.99997 10C6.99997 8.35 8.34997 7 9.99997 7C11.65 7 13 8.35 13 10C13 11.65 11.65 13 9.99997 13Z" fill="#721BE3"/>
</svg>

<svg width="20" height="20" fill="none" xmlns="http://www.w3.org/2000/svg"><path d="M15.95 10.783A5.9 5.9 0 0 0 16 10a4.81 4.81 0 0 0-.058-.783L17.633 7.9a.408.408 0 0 0 .1-.508l-1.6-2.767a.407.407 0 0 0-.491-.183l-1.992.8a5.889 5.889 0 0 0-1.35-.784L12 2.342A.404.404 0 0 0 11.6 2H8.4c-.2 0-.358.142-.392.342l-.3 2.116c-.491.2-.941.475-1.35.784l-1.991-.8a.398.398 0 0 0-.492.183L2.283 7.392c-.1.175-.066.391.1.508l1.692 1.317A4.89 4.89 0 0 0 4 10c0 .258.017.533.058.783L2.367 12.1a.408.408 0 0 0-.1.508l1.6 2.767c.1.183.308.242.491.183l1.992-.8c.417.317.858.584 1.35.784l.3 2.116c.042.2.2.342.4.342h3.2a.39.39 0 0 0 .392-.342l.3-2.116c.491-.2.941-.467 1.35-.784l1.991.8c.184.067.392 0 .492-.183l1.6-2.767a.386.386 0 0 0-.1-.508l-1.675-1.317ZM10 13c-1.65 0-3-1.35-3-3s1.35-3 3-3 3 1.35 3 3-1.35 3-3 3Z" fill="#721BE3"/></svg>
